202404-ahaslides-april/assets/images/2c.svg

<svg width="100" height="100" viewBox="0 0 100 100" fill="none" xmlns="http://www.w3.org/2000/svg">
<path d="M59.9314 23.1787V32.7172H69.996L59.9314 23.1787Z" fill="#858585"/>
<path d="M76.3443 37.8454H57.3508C56.6664 37.8454 56.01 37.5752 55.526 37.0944C55.042 36.6135 54.7702 35.9613 54.7702 35.2813V17.2043H29.8927C28.5239 17.2043 27.2111 17.7446 26.2432 18.7064C25.2752 19.6681 24.7314 20.9725 24.7314 22.3326V78.7428C24.7314 80.1029 25.2752 81.4073 26.2432 82.369C27.2111 83.3307 28.5239 83.871 29.8927 83.871H71.1831C72.5519 83.871 73.8647 83.3307 74.8326 82.369C75.8006 81.4073 76.3443 80.1029 76.3443 78.7428V37.8454ZM60.3443 65.1787L52.3702 72.871C52.1302 73.1113 51.8448 73.3021 51.5304 73.4323C51.2159 73.5624 50.8786 73.6295 50.5379 73.6295C50.1972 73.6295 49.8599 73.5624 49.5454 73.4323C49.231 73.3021 48.9455 73.1113 48.7056 72.871L40.7314 65.1787C38.3314 62.9223 41.9702 59.4608 44.3702 61.7172L47.9573 65.1274V50.23C47.9573 49.5499 48.2291 48.8978 48.7131 48.4169C49.1971 47.936 49.8535 47.6659 50.5379 47.6659C51.2223 47.6659 51.8787 47.936 52.3627 48.4169C52.8467 48.8978 53.1185 49.5499 53.1185 50.23V65.1274L56.7056 61.7172C59.1056 59.4608 62.7185 62.9223 60.3443 65.1787Z" fill="#2F68DC"/>
</svg>

<svg xmlns="http://www.w3.org/2000/svg" width="100" height="100" fill="none" viewBox="0 0 100 100">
  <path fill="#858585" d="M59.931 23.179v9.538h10.065L59.931 23.18Z"/>
  <path fill="#2F68DC" d="M76.344 37.845H57.351a2.59 2.59 0 0 1-1.825-.75 2.556 2.556 0 0 1-.756-1.814V17.204H29.893c-1.37 0-2.682.54-3.65 1.502a5.111 5.111 0 0 0-1.512 3.627v56.41c0 1.36.544 2.664 1.512 3.626a5.178 5.178 0 0 0 3.65 1.502h41.29c1.369 0 2.682-.54 3.65-1.502a5.111 5.111 0 0 0 1.511-3.626V37.845Zm-16 27.334L52.37 72.87a2.584 2.584 0 0 1-1.832.758 2.597 2.597 0 0 1-1.832-.758l-7.975-7.692c-2.4-2.257 1.24-5.718 3.64-3.462l3.586 3.41V50.23c0-.68.272-1.332.756-1.813a2.59 2.59 0 0 1 3.65 0c.484.48.755 1.133.755 1.813v14.897l3.588-3.41c2.4-2.256 6.012 1.205 3.638 3.462Z"/>
</svg>
